X:1
T:Title
%%score { ( 1 4 5 ) | ( 2 3 ) }
L:1/8
M:6/8
K:Eb
V:1 treble nm="Grand Piano"
V:4 treble 
V:5 treble 
V:2 bass 
V:3 bass 
V:1
 z3 z2[Q:1/4=92] [GB] | [Ge]2 [EG] [EG][FA][GB] | [Ac]2 [GB] [EG]2 [EG] | [DF]2 [DF] [DF]c[B,GB] | %4
[M:5/8] [GB]3 G2 |[M:1/8] [B,GB] |[M:3/4] [Ge]2 [EG][EG] [FA][GB] | [Ac]2 [GB] G2 G | FB d c2 =A | %9
[M:5/8] [B,DB]-[B,DB]- [B,DB]3 |[M:1/8] B |[M:3/4] [FA]2 B G2 B | A2 B G2 [B,GB] | %13
 [FA]2 [GB] [FA]2 [DF] |[M:5/8] G-G- G3 |[M:1/8] B |[M:3/4] [FA]2 B G2 B | A2 B G2 G | FB d d2 c | %19
[M:5/8] [B,DB]-[B,DB]- [B,DB]3 |[M:1/8] B |[M:3/4] B4 z2 | [Ge]6 | e4 z2 | %24
[M:5/8] [GB]-[GB]- [GB]3 |[M:1/8] [EGB] |[M:3/4] [DFB]2 [DFB] [EGB]2 [EGB] | %27
 [DFB]2 [DFB] [EGB]2 [EAc] | [EGB]2 [Ge] [Ae]2 [Ad] |[M:5/8] [Ge]-[Ge]- [Ge]3 |] %30
V:2
 z3 z2 [E,B,] | [E,B,]2 [E,B,] [E,B,]2 [E,E] | [E,E]2 [E,E] [E,B,]2 [E,B,] | %3
 [B,,B,]2 [B,,B,] z AB,, |[M:5/8] z z2 E2 |[M:1/8] E, |[M:3/4] [E,B,]2 [E,B,] [E,B,]2 [E,E] | %7
 [E,E]2 [E,E] [E,B,E]2 [E,B,E] | [F,B,D]2 [F,B,F] [F,=A,E]2 [F,CE] |[M:5/8] B,,-B,,- B,,3 | %10
[M:1/8][K:treble] G |[M:3/4] z2 G E2 G | F2 G E2[K:bass] E, | [B,,B,]2 [B,,B,] [B,,B,]2 [B,,B,] | %14
[M:5/8] [E,B,E]-[E,B,E]- [E,B,E]3 |[M:1/8][K:treble] G |[M:3/4] z2 G E2 G | %17
 F2 G E2[K:bass] [E,B,E] | [F,B,D]2 [F,B,F] [F,B,F]2 [F,=A,E] |[M:5/8] B,,-B,,- B,,3 | %20
[M:1/8][K:treble] G |[M:3/4] G4 E[K:bass]E, | [E,B,]2 E, E,2[K:treble] G | c4 B[K:bass]E, | %24
[M:5/8] E,2 E, E,2 |[M:1/8] E, |[M:3/4] B,,2 B,, E,2 E, | B,,2 B,, E,2 A, | %28
 B,2 B, [B,,B,]2 [B,,B,] |[M:5/8] [E,B,]-[E,B,]- [E,B,]3 |] %30
V:3
 x6 | x6 | x6 | z3 .[B,,B,]3 |[M:5/8] E,-E,- E,3 |[M:1/8] x |[M:3/4] x6 | x6 | x6 |[M:5/8] x5 | %10
[M:1/8][K:treble] x |[M:3/4] B,6- | B,6[K:bass] | x6 |[M:5/8] x5 |[M:1/8][K:treble] x | %16
[M:3/4] B,6- | B,6[K:bass] | x6 |[M:5/8] x5 |[M:1/8][K:treble] x |[M:3/4] x5[K:bass] x | %22
 x5[K:treble] x | x5[K:bass] x |[M:5/8] x5 |[M:1/8] x |[M:3/4] x6 | x6 | x6 |[M:5/8] x5 |] %30
V:4
 x6 | x6 | x6 | x6 |[M:5/8] B,-B,- B,3 |[M:1/8] x |[M:3/4] x6 | x6 | x6 |[M:5/8] x5 |[M:1/8] x | %11
[M:3/4] x6 | x6 | x6 |[M:5/8] x5 |[M:1/8] x |[M:3/4] x6 | x6 | x6 |[M:5/8] x5 |[M:1/8] x | %21
[M:3/4] z2 EE G[EGB] | z2 B, B,2 e | z2 .E2 d[EAc] |[M:5/8] E2 E E2 |[M:1/8] x |[M:3/4] x6 | x6 | %28
 x6 |[M:5/8] x5 |] %30
V:5
 x6 | x6 | x6 | x6 |[M:5/8] x5 |[M:1/8] x |[M:3/4] x6 | x6 | x6 |[M:5/8] x5 |[M:1/8] x | %11
[M:3/4] x6 | x6 | x6 |[M:5/8] x5 |[M:1/8] x |[M:3/4] x6 | x6 | x6 |[M:5/8] x5 |[M:1/8] x | %21
[M:3/4] x6 | x6 | z2 z .E3 |[M:5/8] x5 |[M:1/8] x |[M:3/4] x6 | x6 | x6 |[M:5/8] x5 |] %30

